src/lib/packages/icons/src/assets/filled/check-double.svg

<svg width="24" height="24" viewBox="0 0 24 24" fill="none" xmlns="http://www.w3.org/2000/svg">
<path d="M11 18C10.762 18 10.476 17.893 10.288 17.702L6.288 13.64C5.9 13.246 5.905 12.613 6.299 12.226C6.692 11.839 7.325 11.843 7.713 12.237L11.006 15.581L20.294 6.29401C20.685 5.90301 21.317 5.90301 21.708 6.29401C22.099 6.68401 22.099 7.31801 21.708 7.70801L11.708 17.708C11.52 17.895 11.265 18 11 18ZM11.707 13.707L17.707 7.70701C18.098 7.31701 18.098 6.68301 17.707 6.29301C17.316 5.90201 16.684 5.90201 16.293 6.29301L10.293 12.293C9.902 12.683 9.902 13.317 10.293 13.707C10.488 13.902 10.744 14 11 14C11.256 14 11.512 13.902 11.707 13.707ZM7.702 17.712C8.096 17.324 8.1 16.691 7.713 16.298L3.713 12.238C3.325 11.845 2.692 11.84 2.299 12.228C1.905 12.616 1.901 13.249 2.288 13.642L6.288 17.702C6.483 17.9 6.742 18 7 18C7.253 18 7.507 17.904 7.702 17.712Z" fill="currentColor"/>
</svg>

<svg xmlns="http://www.w3.org/2000/svg" width="24" height="24" fill="none"><path fill="currentColor" d="M11 18c-.238 0-.524-.107-.712-.298l-4-4.062a.999.999 0 1 1 1.425-1.403l3.293 3.344 9.288-9.287a.999.999 0 1 1 1.414 1.414l-10 10A1.005 1.005 0 0 1 11 18Zm.707-4.293 6-6a.999.999 0 1 0-1.414-1.414l-6 6a.999.999 0 1 0 1.414 1.414Zm-4.005 4.005a1 1 0 0 0 .011-1.414l-4-4.06a1 1 0 0 0-1.425 1.404l4 4.06a.998.998 0 0 0 1.414.01Z"/></svg>
